src/img/icons.svg

<svg xmlns="http://www.w3.org/2000/svg" aria-hidden="true" style="position:absolute;width:0;height:0;overflow:hidden">
  <defs>
  <symbol id="icon-logo" viewBox="0 0 241 32">
<path d="M0 31.965v-31.965h5.991l14.798 10.372h0.224l14.798-10.372h5.99v31.965h-7.153v-23.024l-10.148 6.795v16.228h-7.153v-16.228l-10.193-6.795v23.024h-7.153z"></path>
<path d="M48.515 31.965v-31.965h7.153v31.965h-7.153z"></path>
<path d="M62.365 31.965v-31.965h7.242l22.621 22.979v-22.979h7.153v31.965h-7.242l-22.621-23.024v23.024h-7.153z"></path>
<path d="M106.077 31.965v-31.965h7.153v31.965h-7.153z"></path>
<path d="M119.927 31.965v-31.965h5.991l14.798 10.372h0.223l14.798-10.372h5.991v31.965h-7.153v-23.024l-10.148 6.795v16.228h-7.153v-16.228l-10.193-6.795v23.024h-7.153z"></path>
<path d="M165.759 31.965l14.395-31.965h11.042l14.396 31.965h-7.78l-3.040-6.751h-18.195l-3.040 6.751h-7.779zM179.171 19.402h13.010l-6.214-13.814h-0.581l-6.214 13.814z"></path>
<path d="M209.623 31.965v-31.965h7.153v26.153h23.381v5.812h-30.534z"></path>
</symbol>
     <symbol id="icon-submit" viewBox="0 0 32 32">
      <path stroke-linecap="round" stroke-linejoin="round" stroke-width="3.692" d="M26.666 8 11.999 22.667 5.332 16"/>
    </symbol>
    <symbol id="icon-facebook" viewBox="0 0 32 32">
      <path d="M31.294 16a15.29 15.29 0 0 0-9.442-14.13A15.293 15.293 0 0 0 .998 13.017a15.299 15.299 0 0 0 15 18.279 15.306 15.306 0 0 0 15.294-15.294zM17.176 28.882v-9.353h3.529a1.176 1.176 0 0 0 0-2.354h-3.529v-3.529a2.354 2.354 0 0 1 2.353-2.353h2.353a1.176 1.176 0 0 0 0-2.354h-2.353a4.718 4.718 0 0 0-4.706 4.706v3.529h-3.529a1.176 1.176 0 0 0 0 2.354h3.529v9.353A12.938 12.938 0 0 1 3.072 15.405 12.944 12.944 0 0 1 16 3.052a12.94 12.94 0 0 1 1.177 25.829z"/>
    </symbol>
    <symbol id="icon-instagram" viewBox="0 0 32 32">
      <path d="M16 8.5a7.504 7.504 0 0 0-6.929 4.63A7.499 7.499 0 1 0 16 8.5zM16 21a4.995 4.995 0 0 1-4.619-3.087 5.004 5.004 0 0 1 1.084-5.449 5 5 0 0 1 8.536 3.535 5.014 5.014 0 0 1-5 5zM22.875.375H9.125a8.749 8.749 0 0 0-8.75 8.75v13.75a8.749 8.749 0 0 0 8.75 8.75h13.75a8.749 8.749 0 0 0 8.75-8.75V9.125a8.749 8.749 0 0 0-8.75-8.75zm6.25 22.5a6.251 6.251 0 0 1-6.251 6.251H9.124a6.255 6.255 0 0 1-5.775-3.859 6.255 6.255 0 0 1-.476-2.392V9.125a6.252 6.252 0 0 1 6.25-6.25h13.75a6.251 6.251 0 0 1 6.251 6.251v13.75zM26 7.875a1.877 1.877 0 0 1-2.24 1.84 1.876 1.876 0 1 1 2.242-1.838z"/>
    </symbol>
    <symbol id="icon-youtube" viewBox="0 0 41 32">
      <path d="M27.071 14.804 18.5 9.09a1.491 1.491 0 0 0-1.465-.071 1.424 1.424 0 0 0-.75 1.268v11.429a1.427 1.427 0 0 0 .75 1.268c.211.105.443.16.679.161.278-.003.55-.083.786-.232l8.571-5.714a1.42 1.42 0 0 0 .648-1.196 1.428 1.428 0 0 0-.648-1.196zm-7.928 4.25v-6.107l4.571 3.054-4.571 3.054zM39.554 5.607a4.191 4.191 0 0 0-2.589-2.911C30.858.339 21.108.357 20.572.357S10.286.339 4.179 2.696A4.199 4.199 0 0 0 1.59 5.607C1.126 7.375.572 10.625.572 16s.554 8.625 1.018 10.393a4.196 4.196 0 0 0 2.589 2.911c5.857 2.268 15.036 2.339 16.268 2.339h.25c1.232 0 10.411-.071 16.268-2.339a4.199 4.199 0 0 0 2.589-2.911c.464-1.768 1.018-5.018 1.018-10.393s-.554-8.625-1.018-10.393zm-2.768 20.072a1.387 1.387 0 0 1-.84.964c-5.661 2.179-15.268 2.143-15.375 2.143h-.018c-.089 0-9.696.036-15.357-2.143a1.388 1.388 0 0 1-.839-.964c-.429-1.625-.929-4.607-.929-9.679s.5-8.054.929-9.679a1.396 1.396 0 0 1 .839-.964c5.446-2.089 14.589-2.143 15.339-2.143h.036c.107 0 9.714-.036 15.375 2.143a1.388 1.388 0 0 1 .84.964c.429 1.625.929 4.607.929 9.679s-.5 8.054-.929 9.679z"/>
    </symbol>
    <symbol id="icon-menu-burger" viewBox="0 0 32 32">
      <path stroke-linejoin="round" stroke-linecap="round" stroke-miterlimit="4" stroke-width="2.4" d="M28 13.333h-24"></path>
      <path stroke-linejoin="round" stroke-linecap="round" stroke-miterlimit="4" stroke-width="2.4" d="M28 8h-24"></path>
      <path stroke-linejoin="round" stroke-linecap="round" stroke-miterlimit="4" stroke-width="2.4" d="M28 18.667h-24"></path>
      <path stroke-linejoin="round" stroke-linecap="round" stroke-miterlimit="4" stroke-width="2.4" d="M28 24h-24"></path>
    </symbol>
    <symbol id="icon-menu-close" viewBox="0 0 32 32">
      <path stroke-linejoin="round" stroke-linecap="round" stroke-miterlimit="4" stroke-width="2" d="M24 8l-16 16"></path>
      <path stroke-linejoin="round" stroke-linecap="round" stroke-miterlimit="4" stroke-width="2" d="M8 8l16 16"></path>
    </symbol>
    <symbol id="icon-x" viewBox="0 0 32 32">
<path stroke-linejoin="round" stroke-linecap="round" stroke-miterlimit="4" stroke-width="2" d="M24 8l-16 16"></path>
<path stroke-linejoin="round" stroke-linecap="round" stroke-miterlimit="4" stroke-width="2" d="M8 8l16 16"></path>
</symbol>
  </defs>
</svg>

<svg xmlns="http://www.w3.org/2000/svg" aria-hidden="true" style="position:absolute;width:0;height:0;overflow:hidden">
  <defs>
  <symbol id="icon-logo" viewBox="0 0 241 32">
      <path d="M0 31.965V0h5.991l14.798 10.372h.224L35.811 0h5.99v31.965h-7.153V8.941L24.5 15.736v16.228h-7.153V15.736L7.154 8.941v23.024H.001zM48.515 31.965V0h7.153v31.965h-7.153zM62.365 31.965V0h7.242l22.621 22.979V0h7.153v31.965h-7.242L69.518 8.941v23.024h-7.153zM106.077 31.965V0h7.153v31.965h-7.153zM119.927 31.965V0h5.991l14.798 10.372h.223L155.737 0h5.991v31.965h-7.153V8.941l-10.148 6.795v16.228h-7.153V15.736l-10.193-6.795v23.024h-7.153zM165.759 31.965 180.154 0h11.042l14.396 31.965h-7.78l-3.04-6.751h-18.195l-3.04 6.751h-7.779zm13.412-12.563h13.01l-6.214-13.814h-.581l-6.214 13.814zM209.623 31.965V0h7.153v26.153h23.381v5.812h-30.534z"/>
    </symbol>
     <symbol id="icon-submit" viewBox="0 0 32 32">
      <path stroke-linecap="round" stroke-linejoin="round" stroke-width="3.692" d="M26.666 8 11.999 22.667 5.332 16"/>
    </symbol>
    <symbol id="icon-facebook" viewBox="0 0 32 32">
      <path d="M31.294 16a15.29 15.29 0 0 0-9.442-14.13A15.293 15.293 0 0 0 .998 13.017a15.299 15.299 0 0 0 15 18.279 15.306 15.306 0 0 0 15.294-15.294zM17.176 28.882v-9.353h3.529a1.176 1.176 0 0 0 0-2.354h-3.529v-3.529a2.354 2.354 0 0 1 2.353-2.353h2.353a1.176 1.176 0 0 0 0-2.354h-2.353a4.718 4.718 0 0 0-4.706 4.706v3.529h-3.529a1.176 1.176 0 0 0 0 2.354h3.529v9.353A12.938 12.938 0 0 1 3.072 15.405 12.944 12.944 0 0 1 16 3.052a12.94 12.94 0 0 1 1.177 25.829z"/>
    </symbol>
    <symbol id="icon-instagram" viewBox="0 0 32 32">
      <path d="M16 8.5a7.504 7.504 0 0 0-6.929 4.63A7.499 7.499 0 1 0 16 8.5zM16 21a4.995 4.995 0 0 1-4.619-3.087 5.004 5.004 0 0 1 1.084-5.449 5 5 0 0 1 8.536 3.535 5.014 5.014 0 0 1-5 5zM22.875.375H9.125a8.749 8.749 0 0 0-8.75 8.75v13.75a8.749 8.749 0 0 0 8.75 8.75h13.75a8.749 8.749 0 0 0 8.75-8.75V9.125a8.749 8.749 0 0 0-8.75-8.75zm6.25 22.5a6.251 6.251 0 0 1-6.251 6.251H9.124a6.255 6.255 0 0 1-5.775-3.859 6.255 6.255 0 0 1-.476-2.392V9.125a6.252 6.252 0 0 1 6.25-6.25h13.75a6.251 6.251 0 0 1 6.251 6.251v13.75zM26 7.875a1.877 1.877 0 0 1-2.24 1.84 1.876 1.876 0 1 1 2.242-1.838z"/>
    </symbol>
    <symbol id="icon-youtube" viewBox="0 0 41 32">
      <path d="M27.071 14.804 18.5 9.09a1.491 1.491 0 0 0-1.465-.071 1.424 1.424 0 0 0-.75 1.268v11.429a1.427 1.427 0 0 0 .75 1.268c.211.105.443.16.679.161.278-.003.55-.083.786-.232l8.571-5.714a1.42 1.42 0 0 0 .648-1.196 1.428 1.428 0 0 0-.648-1.196zm-7.928 4.25v-6.107l4.571 3.054-4.571 3.054zM39.554 5.607a4.191 4.191 0 0 0-2.589-2.911C30.858.339 21.108.357 20.572.357S10.286.339 4.179 2.696A4.199 4.199 0 0 0 1.59 5.607C1.126 7.375.572 10.625.572 16s.554 8.625 1.018 10.393a4.196 4.196 0 0 0 2.589 2.911c5.857 2.268 15.036 2.339 16.268 2.339h.25c1.232 0 10.411-.071 16.268-2.339a4.199 4.199 0 0 0 2.589-2.911c.464-1.768 1.018-5.018 1.018-10.393s-.554-8.625-1.018-10.393zm-2.768 20.072a1.387 1.387 0 0 1-.84.964c-5.661 2.179-15.268 2.143-15.375 2.143h-.018c-.089 0-9.696.036-15.357-2.143a1.388 1.388 0 0 1-.839-.964c-.429-1.625-.929-4.607-.929-9.679s.5-8.054.929-9.679a1.396 1.396 0 0 1 .839-.964c5.446-2.089 14.589-2.143 15.339-2.143h.036c.107 0 9.714-.036 15.375 2.143a1.388 1.388 0 0 1 .84.964c.429 1.625.929 4.607.929 9.679s-.5 8.054-.929 9.679z"/>
    </symbol>
    <symbol id="icon-menu-burger" viewBox="0 0 32 32">
      <path stroke-linejoin="round" stroke-linecap="round" stroke-miterlimit="4" stroke-width="2.4" d="M28 13.333h-24"></path>
      <path stroke-linejoin="round" stroke-linecap="round" stroke-miterlimit="4" stroke-width="2.4" d="M28 8h-24"></path>
      <path stroke-linejoin="round" stroke-linecap="round" stroke-miterlimit="4" stroke-width="2.4" d="M28 18.667h-24"></path>
      <path stroke-linejoin="round" stroke-linecap="round" stroke-miterlimit="4" stroke-width="2.4" d="M28 24h-24"></path>
    </symbol>
    <symbol id="icon-menu-close" viewBox="0 0 32 32">
      <path stroke-linejoin="round" stroke-linecap="round" stroke-miterlimit="4" stroke-width="2" d="M24 8l-16 16"></path>
      <path stroke-linejoin="round" stroke-linecap="round" stroke-miterlimit="4" stroke-width="2" d="M8 8l16 16"></path>
    </symbol>
  </defs>
</svg>
